X: 33274
T: Purlongs, The
R: three-two
M: 3/2
K: Dmajor
d4 A2 de fedc|B2 G4 A2 F2 A2|F2 GA BAGF E2 D2|FG A2 A2 F2 A2 Bc|
d4 A2 de fedc|B2 G4 A2 F2 A2|F2 GA BAGF E2 D2|FG A2 A2 F2 A3 A||
|:B2 G4 B2 Bc d2|e2 E4 e2 ef g2|f3e defg a2 gf|e2 B2 efed c2 BA|
AFAF BGBG cAcA|dBdB ef g2 ga b2|a4 A2a2 A2=c2|B2e2 A2c2 d3c:|

